src/Resource_Files/fluent/emblem-favorite.svg

<svg clip-rule="evenodd" fill-rule="evenodd" stroke-linejoin="round" stroke-miterlimit="2" viewBox="0 0 16 16" xmlns="http://www.w3.org/2000/svg"><path d="m10.496 16.803 6.245-6.304c1.684-1.71 1.679-4.474-.017-6.187-1.663-1.679-4.328-1.722-6.026-.121-.037.034-.073.07-.109.106l-.596.603-.605-.61c-.033-.034-.066-.067-.1-.099-1.702-1.614-4.371-1.589-6.027.083-1.688 1.705-1.68 4.476.016 6.189l6.277 6.34c.26.263.682.263.942 0zm.804-11.803c1.296-1.309 3.403-1.308 4.713.016 1.312 1.325 1.314 3.461.016 4.781l-.001.001-6.003 6.06-6.038-6.099c-1.313-1.326-1.314-3.469-.015-4.782 1.293-1.306 3.398-1.305 4.706.016l.96.97c.196.198.515.198.711 0z" fill="#1abc9c" fill-rule="nonzero" transform="translate(-2.00001 -1.99997)"/></svg>

<?xml version="1.0" encoding="UTF-8" standalone="no"?>
<!DOCTYPE svg PUBLIC "-//W3C//DTD SVG 1.1//EN" "http://www.w3.org/Graphics/SVG/1.1/DTD/svg11.dtd">
<svg width="100%" height="100%" viewBox="0 0 16 16" version="1.1" xmlns="http://www.w3.org/2000/svg" xmlns:xlink="http://www.w3.org/1999/xlink" xml:space="preserve" xmlns:serif="http://www.serif.com/" style="fill-rule:evenodd;clip-rule:evenodd;stroke-linejoin:round;stroke-miterlimit:2;">
    <g transform="matrix(1,0,0,1,-2.00001,-1.99997)">
        <path d="M10.496,16.803L16.741,10.499C18.425,8.789 18.42,6.025 16.724,4.312C15.061,2.633 12.396,2.59 10.698,4.191C10.661,4.225 10.625,4.261 10.589,4.297L9.993,4.9L9.388,4.29C9.355,4.256 9.322,4.223 9.288,4.191C7.586,2.577 4.917,2.602 3.261,4.274C1.573,5.979 1.581,8.75 3.277,10.463L9.554,16.803C9.814,17.066 10.236,17.066 10.496,16.803ZM11.3,5C12.596,3.691 14.703,3.692 16.013,5.016C17.325,6.341 17.327,8.477 16.029,9.797L16.028,9.798L10.025,15.858L3.987,9.759C2.674,8.433 2.673,6.29 3.972,4.977C5.265,3.671 7.37,3.672 8.678,4.993L9.638,5.963C9.834,6.161 10.153,6.161 10.349,5.963L11.3,5Z" style="fill:rgb(26,188,156);fill-rule:nonzero;"/>
    </g>
</svg>
